public/logos/max_svg1-3.svg

<svg width="101" height="31" viewBox="0 0 101 31" fill="none" xmlns="http://www.w3.org/2000/svg">
<path fill-rule="evenodd" clip-rule="evenodd" d="M57.9601 3.16231C56.9601 1.11231 55.1401 0.0623106 52.7301 0.00231057C50.2101 -0.0576894 48.4501 1.05231 47.4501 3.16231L38.5301 21.8723C37.5301 23.9223 37.1801 24.7923 37.1801 26.2023C37.1801 28.4823 39.0601 30.6423 42.2201 30.6423C44.4501 30.6423 45.6201 29.8823 46.9101 27.7823L48.2001 25.6823C49.0801 24.2823 50.4301 22.8723 52.6601 22.8723C54.8901 22.8723 56.1801 24.2723 57.0601 25.6823L58.3501 27.7823C59.6401 29.8823 60.7601 30.6423 62.9801 30.6423C66.2101 30.6423 67.9701 28.4223 67.9701 26.1423C67.9701 24.7423 67.7401 23.9223 66.8001 21.9923L57.9501 3.16231H57.9601Z" fill="black"/>
<path fill-rule="evenodd" clip-rule="evenodd" d="M28.39 0.00230408C26.34 0.00230408 25.22 0.582304 24.11 1.8723L16.72 10.3523L9.27 1.8723C8.15 0.592304 7.04 0.00230408 4.99 0.00230408C2.11 0.00230408 0 1.9323 0 5.6123V25.3723C0 28.9923 2.05 30.5723 5.28 30.5723C6.63 30.5723 7.74 30.2823 8.62 29.6323C9.56 28.7523 10.09 27.4123 10.09 25.3623V17.7023L12.44 20.6223C13.5 21.9123 14.73 22.9023 16.72 22.9023C18.36 22.9023 19.54 22.2623 20.88 20.5623L23.29 17.7023V25.3623C23.29 27.4123 23.82 28.7523 24.76 29.6323C25.64 30.2723 26.75 30.5723 28.1 30.5723C31.33 30.5723 33.38 28.9923 33.38 25.3723V5.6123C33.38 1.9323 31.27 0.00230408 28.39 0.00230408Z" fill="black"/>
<path fill-rule="evenodd" clip-rule="evenodd" d="M92.8 15.4423L98.54 9.0123C99.65 7.7223 100.12 6.5023 100.12 4.9823C100.13 2.4623 97.67 0.00230408 94.85 0.00230408C93.38 0.00230408 91.98 0.702304 90.63 2.2223L85.72 7.8223L80.83 2.1723C79.54 0.652304 78.02 0.00230408 76.55 0.00230408C73.68 0.00230408 71.27 2.3423 71.27 4.9123C71.27 6.4323 71.74 7.6623 72.85 8.9423L78.58 15.3923L72.97 21.6223C71.86 22.9123 71.44 24.1323 71.44 25.6023C71.44 28.0623 73.61 30.6323 76.66 30.6323C78.19 30.6323 79.59 30.0523 80.94 28.4723L85.69 23.0123L90.44 28.4723C91.73 29.9923 93.2 30.6323 94.61 30.6323C97.78 30.6323 99.89 28.0623 99.89 25.6623C99.89 24.2023 99.48 22.9723 98.37 21.6823L92.8 15.4323V15.4423Z" fill="black"/>
</svg>

<svg xmlns="http://www.w3.org/2000/svg" id="Layer_1" data-name="Layer 1" viewBox="0 0 100.13 51.19"><defs><style>      .cls-1 {        fill: #fff;        fill-rule: evenodd;      }    </style></defs><path class="cls-1" d="M57.96,3.16C56.96,1.11,55.14.06,52.73,0c-2.52-.06-4.28,1.05-5.28,3.16l-8.92,18.71c-1,2.05-1.35,2.92-1.35,4.33,0,2.28,1.88,4.44,5.04,4.44,2.23,0,3.4-.76,4.69-2.86l1.29-2.1c.88-1.4,2.23-2.81,4.46-2.81s3.52,1.4,4.4,2.81l1.29,2.1c1.29,2.1,2.41,2.86,4.63,2.86,3.23,0,4.99-2.22,4.99-4.5,0-1.4-.23-2.22-1.17-4.15L57.95,3.16h0Z"></path><path class="cls-1" d="M28.39,0c-2.05,0-3.17.58-4.28,1.87l-7.39,8.48L9.27,1.87C8.15.59,7.04,0,4.99,0,2.11,0,0,1.93,0,5.61v19.76c0,3.62,2.05,5.2,5.28,5.2,1.35,0,2.46-.29,3.34-.94.94-.88,1.47-2.22,1.47-4.27v-7.66l2.35,2.92c1.06,1.29,2.29,2.28,4.28,2.28,1.64,0,2.82-.64,4.16-2.34l2.41-2.86v7.66c0,2.05.53,3.39,1.47,4.27.88.64,1.99.94,3.34.94,3.23,0,5.28-1.58,5.28-5.2V5.61C33.38,1.93,31.27,0,28.39,0Z"></path><path class="cls-1" d="M92.8,15.44l5.74-6.43c1.11-1.29,1.58-2.51,1.58-4.03C100.13,2.46,97.67,0,94.85,0c-1.47,0-2.87.7-4.22,2.22l-4.91,5.6-4.89-5.65C79.54.65,78.02,0,76.55,0c-2.87,0-5.28,2.34-5.28,4.91,0,1.52.47,2.75,1.58,4.03l5.73,6.45-5.61,6.23c-1.11,1.29-1.53,2.51-1.53,3.98,0,2.46,2.17,5.03,5.22,5.03,1.53,0,2.93-.58,4.28-2.16l4.75-5.46,4.75,5.46c1.29,1.52,2.76,2.16,4.17,2.16,3.17,0,5.28-2.57,5.28-4.97,0-1.46-.41-2.69-1.52-3.98l-5.57-6.25h0Z"></path><path class="cls-1" d="M5.2,43.34H1.59l.09-1.13h6.03l-.07,1.03-1.08.1v6.01h-1.36v-6.01Z"></path><path class="cls-1" d="M13.3,44.84c0-1.3-.52-1.52-2.21-1.52-.59,0-1.13-.01-1.8.04l.09-1.16c.71-.06,1.3-.06,1.95-.06,2.39,0,3.33.55,3.33,2.46v4.76h-1.36v-4.52Z"></path><path class="cls-1" d="M21.75,49.35l-2.83-3.88c-.57.3-.74,1.07-.81,1.96l-.13,1.92h-1.36l.14-2.03c.1-1.34.54-2.27,1.56-2.64l-1.8-2.47h1.54l2.58,3.59c.78-.27.92-.9.98-2.01l.1-1.58h1.36l-.1,1.58c-.11,1.86-.72,2.54-1.77,2.78l2.01,2.78h-1.47Z"></path><path class="cls-1" d="M25.27,45.44l1.36-.08v5.83h-1.36v-5.75ZM30.24,43.38h-5.11l.09-1.17h6.47l-.08,1.17-1.83,5.97h-1.36s1.83-5.97,1.83-5.97h0Z"></path><path class="cls-1" d="M36.71,42.21h1.33v4.09l-1.33.08v-4.18Z"></path><path class="cls-1" d="M40.4,44.31l-.28-2.1h1.32l.17,1.3c.45-.76,1.33-1.41,2.65-1.41,1.93,0,2.69,1.3,2.69,3.25,0,1-.04,2.63-.23,4.01h-3.6l.07-1.12h2.28c.06-.88.11-1.78.11-2.67,0-1.5-.28-2.36-1.56-2.36-1.09,0-1.61.54-2.27,1.43l-.27,4.71h-1.36l.27-5.04h0Z"></path><path class="cls-1" d="M49.33,49.35h1.33v-7.14h-1.33v7.14Z"></path><path class="cls-1" d="M57.99,49.35l-2.83-3.88c-.57.3-.74,1.07-.81,1.96l-.13,1.92h-1.36l.14-2.03c.1-1.34.54-2.27,1.56-2.64l-1.8-2.47h1.54l2.58,3.59c.78-.27.92-.9.98-2.01l.1-1.58h1.36l-.1,1.58c-.11,1.86-.72,2.54-1.77,2.78l2.01,2.78h-1.47Z"></path><path class="cls-1" d="M64.96,43.38h-4.02v-2.94l1.29-.08v1.85h4.18l-.09,1.17-2.46,5.97h-1.36s2.46-5.97,2.46-5.97Z"></path><path class="cls-1" d="M78.7,44.74v4.62h-1.36v-4.33c0-1.51-.25-1.75-2.62-1.75h-.85v4.01c0,1.71-.67,2.15-1.98,2.15-.24,0-.48-.01-.74-.07l.07-1.13c.27.01.34.03.52.03.59,0,.76-.13.76-.81v-4.15c-.49.01-.95.04-1.42.07l.09-1.16c1.09-.07,2.17-.13,3.74-.13,2.95,0,3.78.59,3.78,2.65"></path><path class="cls-1" d="M80.77,42.21h1.33v4.09l-1.33.08v-4.18Z"></path><path class="cls-1" d="M84.08,48.23h3.8v-3.29c0-1.38-.51-1.62-2.07-1.62-.68,0-1.29.01-1.83.04l.09-1.16c.59-.03,1.25-.06,1.98-.06,2.25,0,3.19.56,3.19,2.51v3.57l1.16.1-.07,1.03h-6.32l.07-1.13Z"></path><path class="cls-1" d="M92.01,44.31l-.28-2.1h1.32l.17,1.3c.45-.76,1.33-1.41,2.65-1.41,1.93,0,2.69,1.3,2.69,3.25,0,1-.04,2.63-.23,4.01h-3.6l.07-1.12h2.28c.06-.88.11-1.78.11-2.67,0-1.5-.28-2.36-1.56-2.36-1.09,0-1.61.54-2.27,1.43l-.27,4.71h-1.36l.27-5.04h0Z"></path></svg>
